X:231
T:Gilbert Clancy's
R:reel
D:Mary Bergin: Feadoga Stain
D:Danu: Think before you think
M:4/4
L:1/8
Q:1/4=215
K:G
|:DG~G2 dG~G2|cA~A2 dedA|DG~G2 ~B3d|cAdc AG~G2|
  DG~G2 ~B3g |~c3A dcAd|~g3a gfde |1 fdcA AG~G2:|2 fdcA AGBd|
|:dg~g2  gfde| ~f3e fdcA |dg~g2 gfde|fdcA AG~G2|
  dg~g2  gfde| ~f3g afdf |~g2ga bgag|fdcA AGG2:|
